X:109
T:I can let it alone - Woodrich
%%VWML:SBG-1-2-130-0
F:http://www.vwml.org/record/SBG/1/2/130
Z:Original Sibelius transcriptions by M. & S. Graebe
L:1/8
M:6/8
I:linebreak $
K:C
V:1 treble nm="P1"
V:2 treble 
V:1
 G/G/ | c2 B d2 c | (A2 G) E2 D | C3- C2 E | A4 z B/B/ | c2 B e2 d | (c2 B) A2 A |$ ^G3- G2 A | %8
w: ||||||* * Or can|let _ it|
 A3 G2 F | E2 C B2 A | c2 B E2 C | E D2- D3 | !fermata!C4 x2 | %13
w: run O ye|sil- ly maids of|me in time take|warn- * *|ing|
V:2
 x | x6 | x6 | x3 x x D | x6 | x6 | x6 |$ x6 | x6 | x6 | x6 | x6 | x6 | %13

